assets/images/circle-leaf.svg

<?xml version="1.0" encoding="UTF-8"?> <svg xmlns="http://www.w3.org/2000/svg" width="71" height="71" viewBox="0 0 71 71" fill="none"><circle cx="35.9985" cy="35.752" r="34.5" fill="white" stroke="#DCDCDC"></circle><path d="M45.5212 20.3147C45.4811 20.1674 45.3814 20.0434 45.2459 19.9729C44.9787 19.8314 44.6474 19.9335 44.5059 20.2007C44.5055 20.2014 44.5051 20.2021 44.5048 20.2027C44.5048 20.2179 41.731 25.5991 33.216 26.5368C32.1053 26.6553 31.0196 26.9451 29.9976 27.3959C28.1682 28.1912 26.6574 29.5754 25.7053 31.3282C24.8164 32.9747 24.4483 34.8522 24.6496 36.7125C24.7979 38.0685 25.2508 39.3735 25.9745 40.5298C24.4621 41.6158 19.6646 45.3696 19.2321 49.3987C19.2003 49.6994 19.4184 49.9689 19.7191 50.0007C20.0198 50.0325 20.2893 49.8144 20.321 49.5137C20.7173 45.9171 25.2183 42.4295 26.6218 41.4192C28.3067 43.4882 30.8294 44.6558 33.5367 44.8463C35.3588 44.9639 37.1831 44.6532 38.8635 43.9389C40.6876 43.1735 42.2986 41.9766 43.558 40.4512C46.8037 36.5189 48.3494 29.9095 45.5212 20.3147ZM26.9364 39.9884C26.7277 39.6597 26.5437 39.3159 26.3859 38.9599C26.0538 38.2088 25.8395 37.411 25.7507 36.5945C25.5654 34.9561 25.8818 33.3001 26.6581 31.8455C27.4972 30.3032 28.8282 29.0862 30.4392 28.388C31.3602 27.987 32.3377 27.731 33.337 27.6288C38.9572 27.0238 42.2634 24.5223 43.9694 22.7073C42.9671 26.0074 41.2413 29.0424 38.9179 31.5914L38.5852 28.2398C38.5682 27.9379 38.3098 27.7069 38.0079 27.7238C37.706 27.7408 37.475 27.9993 37.4919 28.3011C37.4927 28.316 37.4942 28.3309 37.4962 28.3457L37.9227 32.6531C35.3788 35.2333 31.8427 37.8256 26.9364 39.9884ZM42.7111 39.7494V39.7525C41.5668 41.1456 40.101 42.2398 38.44 42.9407C36.9125 43.5862 35.2546 43.8638 33.6002 43.7513C31.297 43.6346 29.1356 42.6035 27.5958 40.8868C29.4003 40.0883 31.1451 39.1613 32.8167 38.113L37.6233 39.0204C37.922 39.0672 38.2021 38.863 38.2489 38.5643C38.294 38.2762 38.1053 38.0032 37.8199 37.9436L34.1265 37.2448C35.8319 36.0736 37.4193 34.7394 38.8665 33.2611C38.893 33.2383 38.9173 33.2129 38.9391 33.1855C42.7565 29.2108 44.3808 25.2785 45.0584 22.8586C46.9277 30.8321 45.497 36.3797 42.7111 39.7494Z" fill="#C4C4C4"></path></svg>

<svg xmlns="http://www.w3.org/2000/svg" width="71" height="71" fill="none"><circle cx="35.998" cy="35.752" r="34.5" fill="#fff" stroke="#DCDCDC"/><path d="M45.521 20.315a.547.547 0 0 0-.275-.342.548.548 0 0 0-.741.23c0 .015-2.774 5.396-11.289 6.334-1.11.118-2.196.408-3.218.859a8.942 8.942 0 0 0-4.293 3.932 9.241 9.241 0 0 0-1.055 5.384 9.05 9.05 0 0 0 1.325 3.818c-1.513 1.086-6.31 4.84-6.743 8.869a.548.548 0 0 0 1.089.115c.396-3.597 4.897-7.085 6.3-8.095 1.686 2.07 4.208 3.237 6.916 3.427a11.692 11.692 0 0 0 5.327-.907 12.219 12.219 0 0 0 4.694-3.488c3.246-3.932 4.791-10.541 1.963-20.136ZM26.936 39.988a7.984 7.984 0 0 1-1.186-3.394 8.143 8.143 0 0 1 .908-4.748 7.865 7.865 0 0 1 3.781-3.458 9.742 9.742 0 0 1 2.898-.76c5.62-.604 8.926-3.106 10.632-4.92a23.194 23.194 0 0 1-5.051 8.883l-.333-3.351a.548.548 0 1 0-1.089.106l.427 4.307c-2.544 2.58-6.08 5.173-10.987 7.335Zm15.775-.239v.003a11.124 11.124 0 0 1-4.271 3.189 10.588 10.588 0 0 1-4.84.81 8.654 8.654 0 0 1-6.004-2.864 41.228 41.228 0 0 0 5.22-2.774l4.807.907a.547.547 0 0 0 .197-1.076l-3.694-.7a31.926 31.926 0 0 0 4.813-4.059c3.818-3.974 5.442-7.907 6.12-10.326 1.869 7.973.438 13.52-2.348 16.89Z" fill="#C4C4C4"/></svg>
